X:132
T:Slip simple chords 1
M:3/4
L:1/8
K:Am
B/c/[d2G,2B,2D2]c BG | BB GB [d2G,2B,2D2] | cB GB cB | A[d2G,2B,2D2]c BG | BB GB [cC,E,G,]B |
cA2B cB | A[d2G,2B,2D2]c BG | BB GB [d2G,2B,2D2] | cB GB cB |
A[d2G,2B,2D2]c BG | BB GB [cC,E,G,]B | cA2B cB | A[GG,B,D] Bd gd |
Bg dB [GG,B,D]B | dg dB cB | A[GG,B,D] Bd gd | Bg dB [cC,E,G,]B |
cA2B cB | A[GD,^F,A,C] Bd gd | Bg dB [GG,B,D]B | dg dB cB |
A[GG,B,D] Bd gd | Bg dB [cC,E,G,]B | cA2B cB | A |


